assets/Black small square/Flat/black_small_square_flat.svg

<svg width="32" height="32" viewBox="0 0 32 32" fill="none" xmlns="http://www.w3.org/2000/svg">
<path d="M10 12C10 10.8954 10.8954 10 12 10H20C21.1046 10 22 10.8954 22 12V20C22 21.1046 21.1046 22 20 22H12C10.8954 22 10 21.1046 10 20V12Z" fill="black"/>
</svg>

<svg xmlns="http://www.w3.org/2000/svg" width="32" height="32" fill="none"><path fill="#000" d="M10 12a2 2 0 0 1 2-2h8a2 2 0 0 1 2 2v8a2 2 0 0 1-2 2h-8a2 2 0 0 1-2-2v-8Z"/></svg>
